src/cmd/sc_tablemodefixprop.svg

<svg viewBox="0 0 16 16" xmlns="http://www.w3.org/2000/svg">/&amp;gt;<g fill="#762572"><path d="m2 10h1v5h-1z"/><path d="m13 10h1v5h-1z"/><path d="m3 12v1h2v-1zm8 0v1h2v-1z"/></g><path d="m2 2v7h12v-7zm1 1h3v2h-3zm4 0h2v2h-2zm3 0h3v2h-3zm-7 3h3v2h-3zm4 0h2v2h-2zm3 0h3v2h-3z" fill="#232629"/><g fill="#762572"><rect height="2" ry="1" width="2" x="6" y="10"/><circle cx="10" cy="14" r="1"/><path d="m10.3 10-4.3 4.3.7.7 4.3-4.3z" fill-rule="evenodd"/></g></svg>

<?xml version="1.0" encoding="UTF-8" standalone="no"?>
<svg
   xmlns:dc="http://purl.org/dc/elements/1.1/"
   xmlns:cc="http://creativecommons.org/ns#"
   xmlns:rdf="http://www.w3.org/1999/02/22-rdf-syntax-ns#"
   xmlns:svg="http://www.w3.org/2000/svg"
   xmlns="http://www.w3.org/2000/svg"
   xmlns:sodipodi="http://sodipodi.sourceforge.net/DTD/sodipodi-0.dtd"
   xmlns:inkscape="http://www.inkscape.org/namespaces/inkscape"
   viewBox="0 0 16 16"
   version="1.1"
   id="svg20"
   sodipodi:docname="sc_tablemodefixprop.svg"
   inkscape:version="0.92.4 (5da689c313, 2019-01-14)"><metadata
   id="metadata26">
  <rdf:RDF>
    <cc:Work
       rdf:about="">
      <dc:format>image/svg+xml</dc:format>
      <dc:type
         rdf:resource="http://purl.org/dc/dcmitype/StillImage" />
    </cc:Work>
  </rdf:RDF>
</metadata>
<defs
   id="defs24" />
<sodipodi:namedview
   pagecolor="#ffffff"
   bordercolor="#666666"
   borderopacity="1"
   objecttolerance="10"
   gridtolerance="10"
   guidetolerance="10"
   inkscape:pageopacity="0"
   inkscape:pageshadow="2"
   inkscape:window-width="1920"
   inkscape:window-height="1011"
   id="namedview22"
   showgrid="true"
   inkscape:zoom="83.4386"
   inkscape:cx="1.6363601"
   inkscape:cy="12.877594"
   inkscape:window-x="1920"
   inkscape:window-y="32"
   inkscape:window-maximized="1"
   inkscape:current-layer="svg20">
  <inkscape:grid
     type="xygrid"
     id="grid833" />
</sodipodi:namedview>
/&amp;gt;<g
   fill="#762572"
   id="g8">
  <path
     d="m2 10h1v5h-1z"
     id="path2" />
  <path
     d="m13 10h1v5h-1z"
     id="path4" />
  <path
     d="m3 12v1h2v-1zm8 0v1h2v-1z"
     id="path6" />
</g>
<path
   d="M 2,4 V 9 H 14 V 4 C 14,2 13,2 11,2 H 5 C 3,2 2,2 2,4 Z M 5,3 H 6 V 5 H 3 V 4 C 3,3 4,3 5,3 Z M 7,3 H 9 V 5 H 7 Z m 3,0 h 1 c 1,0 2,0 2,1 V 5 H 10 Z M 3,6 H 6 V 8 H 3 Z M 7,6 H 9 V 8 H 7 Z m 3,0 h 3 v 2 h -3 z"
   id="path10"
   inkscape:connector-curvature="0"
   style="fill:#232629"
   sodipodi:nodetypes="ccccccccccccccccccccccccccccccccccccccc" />
<g
   fill="#762572"
   id="g18">
  <rect
     height="2"
     ry="1"
     width="2"
     x="6"
     y="10"
     id="rect12" />
  <circle
     cx="10"
     cy="14"
     r="1"
     id="circle14" />
  <path
     d="m10.3 10-4.3 4.3.7.7 4.3-4.3z"
     fill-rule="evenodd"
     id="path16" />
</g>
</svg>
